**kern	**silbe	**kern	**silbe
*ICvox	*	*ICvox	*
*G-:	*	*G-:	*
*M4/4	*	*M4/4	*
*clefG2	*	*clefC3	*
r;	.	r;	.
=1	=1	=1	=1
1r	.	1r	.
=2	=2	=2	=2
1r	.	1r	.
=3	=3	=3	=3
1r	.	1r	.
=4	=4	=4	=4
1r	.	1r	.
=5	=5	=5	=5
8a-q	_	.	.
4b-	Hea-	4d- 4g-	Hea-
4a-	-ven's	4d- 4g-	-ven's
4b-	just	4d- 4g-	just
4a-	a	4c- 4e-	a
=6	=6	=6	=6
8a-q	_	.	.
4b-	sin	4d- 4g-	sin
8a-	a-	8c- 8e-	a-
8[g-	-way,	8[B- 8[d-	-way,
8g-]	_	8B-] 8d-]	_
8b-	whoa	8B- 8e-	whoa
8a-	_	8c- 8e-	_
8g-	_	8c- 8e-	_
=7	=7	=7	=7
4a-	whoa,	4c- 4e-	whoa,
4g-	_	4c- 4e-	_
4a-	just	4c- 4e-	just
4g-	a	4c- 4e-	a
=8	=8	=8	=8
8g-q	_	.	.
4a-	sin	4c- 4f-	sin
8g-	a-	8c- 8e-	a-
8[a-	-way,	8[c- 8[e-	-way
8a-]	_	4c-] 4e-]	_
8g-	_	.	.
4e-	_	4r	.
=9	=9	=9	=9
8r	.	8r	.
8a-	I	8d- 8g-	I
4b-	can't	4d- 4g-	can't
4b-	wait	4d- 4g-	wait
4a-	a-	4c- 4e-	a-
=10	=10	=10	=10
4b-	-no-	4d- 4g-	-no-
8a-	-ther	8c- 8e-	-ther
8[g-	day,	8[B- 8[d-	day,
8g-]	_	8B-] 8d-]	_
8a-	I	8c- 8e-	I
4b-	_	4d- 4g-	_
=11	=11	=11	=11
4a-	think	4c 4e-	think
4a-	I'm	4c 4e-	I'm
4a-	gi-	4c 4e-	gi-
8g-	-vin'	8c 8e-	-vin'
8a-q	_	8cq 8e-q	_
8[b-	in	8[d- 8[f	in
=12	=12	=12	=12
8b-]	_	8d-] 8f]	_
8r	.	8r	.
4r	.	4r	.
2r	.	2r	.
=13	=13	=13	=13
8a-q	_	.	.
8b-	How	8d- 8g-	How
4a-	I'd	4d- 4g-	I'd
4.b-	love	4.d- 4.g-	love
8a-	to	8c- 8e-	to
8[b-	hold	8[d- 8[g-	hold
=14	=14	=14	=14
4b-]	_	4d-] 4g-]	_
8a-	you	8c- 8e-	you
8[g-	tight,	8[B- 8[d-	tight,
8g-]	_	8B-] 8d-]	_
8b-	whoa	8B- 8e-	whoa
8a-	_	8c- 8e-	_
8g-	_	8c- 8e-	_
=15	=15	=15	=15
4a-	whoa,	4c- 4e-	whoa,
4g-	_	4c- 4e-	_
4a-	be	4c- 4e-	be
8g-	with	8c- 8e-	with
8[a-	you	8[c- 8[f-	you
=16	=16	=16	=16
4a-]	_	4c-] 4f-]	_
8g-	to-	8c- 8e-	to-
8[a-	-night	8[c- 8[e-	-night
8a-]	_	4c-] 4e-]	_
8g-	_	.	.
4e-	_	4r	.
=17	=17	=17	=17
8r	.	8r	.
8a-	But	8d- 8g-	But
4b-	that	4d- 4g-	that
4b-	still	4d- 4g-	still
4a-	won't	4c- 4e-	won't
=18	=18	=18	=18
4b-	make	4d- 4g-	make
8a-	it	8c- 8e-	it
8[g-	right,	8[B- 8[d-	right,
8g-]	_	8B-] 8d-]	_
8a-	cuz	8c- 8e-	cuz
4b-	_	4d- 4g-	_
=19	=19	=19	=19
4a-	I	4d- 4f	I
8g-	be-	8d- 8e-	be-
8[b-	-long	8[d- 8[g-	-long
4b-]	_	4d-] 4g-]	_
8dd-	to	8d- 8f	to
8a-q	_	8fq	_
8[b-	him	8[d- 8[g-	him
=20	=20	=20	=20
8b-]	_	8d-] 8g-]	_
8a-	_	8c- 8e-	_
2.g-	_	2.B- 2.d-	_
=21	=21	=21	=21
4r	.	1r	.
8r	.	.	.
8a-q	_	.	.
8[b-	Oh,	.	.
8b-]	_	.	.
8a-	_	.	.
8b-	_	.	.
8a-	_	.	.
=22	=22	=22	=22
4a-	way	1r	.
4g-	down	.	.
8e-	deep	.	.
8a-	in	.	.
4b-	_	.	.
=23	=23	=23	=23
4a-	side	1r	.
4g-	_	.	.
4r	.	.	.
8g-	I	.	.
8a-	know	.	.
=24	=24	=24	=24
4g-	_	1r	.
8g-	that	.	.
8[a-	it's	.	.
8a-]	_	.	.
8a-	all	.	.
8b-	_	.	.
8a-	_	.	.
=25	=25	=25	=25
16a-	wrong	1r	.
8.[g-	_	.	.
16g-]	_	.	.
16e-	_	.	.
8r	.	.	.
8r	.	.	.
8a-	Your	.	.
8b-	_	.	.
8a-	_	.	.
=26	=26	=26	=26
16a-	eyes	1r	.
8.g-	_	.	.
4g-	keep	.	.
8e-	temp-	.	.
8a-	-ting	.	.
8b-	_	.	.
8a-	_	.	.
=27	=27	=27	=27
8a-	me	1r	.
4.g-	_	.	.
8r	.	.	.
8a-	and	.	.
4b-	I	.	.
=28	=28	=28	=28
8a-	ne-	8d- 8f	ne-
4a-	-ver	4d- 4f	-ver
8[a-	was	8[d- 8[f	was
8a-]	_	8d-] 8f]	_
4b-	that	4e- 4g-	that
8cc-q	_	8e-q 8g-q	_
8[dd-	strong,	8[f 8[a-	strong,
=29	=29	=29	=29
4dd-]	_	4f] 4a-]	_
4b-	_	4e- 4[g-	_
4a-	_	2[d- 2g-_	_
4[b-	_	.	.
=30	=30	=30	=30
2b-]	_	2d-] 2g-]	_
8b-	De-	8d- 8g-	De-
4a-	-vil's	4c- 4e-	-vil's
8b-	got	8d- 8g-	got
=31	=31	=31	=31
8r	.	8r	.
8a-	me	8c- 8e-	me
8g-	_	8c- 8e-	_
8[g-	now,	8[B- 8[d-	now,
8g-]	_	8B-] 8d-]	_
8b-	whoa	8B- 8e-	whoa
8a-	_	8c- 8e-	_
8g-	_	8c- 8e-	_
=32	=32	=32	=32
4a-	whoa,	4c- 4e-	whoa,
4g-	_	4c- 4e-	_
4a-	gone	4c- 4e-	gone
4g-	and	4c- 4e-	and
=33	=33	=33	=33
8g-q	_	.	.
4a-	got	4c- 4f-	got
8g-	me	8c- 8e-	me
8[a-	now	8[c- 8[e-	now
8a-]	_	4c-] 4e-]	_
8g-	_	.	.
4e-	_	4r	.
=34	=34	=34	=34
8r	.	8r	.
8a-	I	8d- 8g-	I
4b-	can't	4d- 4g-	can't
4b-	fight	4d- 4g-	fight
4a-	him	4c- 4e-	him
=35	=35	=35	=35
4b-	a-	4d- 4g-	a-
8a-	-ny-	8c- 8e-	-ny-
8[g-	-how,	8[B- 8[d-	-how,
8g-]	_	8B-] 8d-]	_
8a-	I	8c- 8e-	I
4b-	_	4d- 4g-	_
=36	=36	=36	=36
4a-	think	4c 4e-	think
4a-	he's	4c 4e-	he's
4a-	gon-	4c 4e-	gon-
8g-	-na	8c 8e-	-na
8a-q	_	8cq 8e-q	_
8[b-	win	8[d- 8[f	win
=37	=37	=37	=37
8b-]	_	8d-] 8f]	_
8r	.	8r	.
4r	.	4r	.
2r	.	2r	.
=38	=38	=38	=38
8a-q	_	.	.
4b-	Hea-	4d- 4g-	Hea-
4a-	-ven's	4d- 4g-	-ven's
4b-	just	4d- 4g-	just
4a-	a	4c- 4e-	a
=39	=39	=39	=39
8a-q	_	.	.
4b-	sin	4d- 4g-	sin
8a-	a-	8c- 8e-	a-
8[g-	-way,	8[B- 8[d-	-way,
8g-]	_	8B-] 8d-]	_
8b-	whoa	8B- 8e-	whoa
8a-	_	8c- 8e-	_
8g-	_	8c- 8e-	_
=40	=40	=40	=40
4a-	whoa,	4c- 4e-	whoa,
4g-	_	4c- 4e-	_
4a-	just	4c- 4e-	just
4g-	a	4c- 4e-	a
=41	=41	=41	=41
8g-q	_	.	.
4a-	sin	4c- 4f-	sin
8g-	a-	8c- 8e-	a-
8[a-	-way,	8[c- 8[e-	-way
8a-]	_	4c-] 4e-]	_
8g-	_	.	.
4e-	_	4r	.
=42	=42	=42	=42
8b-	Hea-	8d- 8g-	Hea-
4b-	-ven	4d- 4g-	-ven
8[b-	help	8[d- 8[g-	help
8b-]	_	8d-] 8g-]	_
4.a-	me	4.c- 4.e-	me
=43	=43	=43	=43
8b-	when	8d- 8g-	when
4a-	I	4c- 4e-	I
8g-	say	8B- 8d-	say
4r	.	4r	.
8r	.	8r	.
8b-	I	8d- 8g-	I
=44	=44	=44	=44
4a-	think	4d- 4f	think
4g-	I'm	4d- 4e-	I'm
4b-	gi-	4d- 4g-	gi-
8dd-	-vin'	8d- 8f	-vin'
8a-q	_	8fq	_
8[b-	in!	8[d- 8[g-	in!
=45	=45	=45	=45
8b-]	_	8d-] 8g-]	_
8a-	_	8c- 8e-	_
2.g-	_	2.B- 2.d-	_
=46	=46	=46	=46
1r	.	1r	.
=47	=47	=47	=47
1r	.	1r	.
=48	=48	=48	=48
1r	.	1r	.
=49	=49	=49	=49
1r	.	1r	.
=50	=50	=50	=50
1r	.	1r	.
=51	=51	=51	=51
1r	.	1r	.
=52	=52	=52	=52
1r	.	1r	.
=53	=53	=53	=53
4r	.	1r	.
8r	.	.	.
8a-q	_	.	.
8[b-	Oh,	.	.
8b-]	_	.	.
8a-	_	.	.
8b-	_	.	.
8a-	_	.	.
=54	=54	=54	=54
8a-	way	1r	.
8g-	_	.	.
4g-	down	.	.
8e-	deep	.	.
8a-	in	.	.
4b-	_	.	.
=55	=55	=55	=55
4a-	side	1r	.
4g-	_	.	.
4r	.	.	.
8g-	I	.	.
8a-	know	.	.
=56	=56	=56	=56
4g-	_	1r	.
8g-	that	.	.
8[a-	it's	.	.
8a-]	_	.	.
8a-	all	.	.
8b-	_	.	.
8a-	_	.	.
=57	=57	=57	=57
16a-	wrong	1r	.
8.[g-	_	.	.
16g-]	_	.	.
16e-	_	.	.
8r	.	.	.
8r	.	.	.
8a-	Your	.	.
8b-	_	.	.
8a-	_	.	.
=58	=58	=58	=58
16a-	eyes	1r	.
8.g-	_	.	.
4g-	keep	.	.
8e-	temp-	.	.
8a-	-ting	.	.
8b-	_	.	.
8a-	_	.	.
=59	=59	=59	=59
8a-	me	1r	.
4.g-	_	.	.
8r	.	.	.
8a-	and	.	.
4b-	I	.	.
=60	=60	=60	=60
8a-	ne-	8d- 8f	ne-
4a-	-ver	4d- 4f	-ver
8[a-	was	8[d- 8[f	was
8a-]	_	8d-] 8f]	_
4b-	that	4e- 4g-	that
8cc-q	_	8e-q 8g-q	_
8[dd-	strong,	8[f 8[a-	strong,
=61	=61	=61	=61
4dd-]	_	4f] 4a-]	_
4b-	_	4e- 4[g-	_
4a-	_	2[d- 2g-_	_
4[b-	_	.	.
=62	=62	=62	=62
2b-]	_	2d-] 2g-]	_
8b-	De-	8d- 8g-	De-
4a-	-vil's	4c- 4e-	-vil's
8a-q	_	8c-q 8e-q	_
8b-	got	8d- 8g-	got
=63	=63	=63	=63
8r	.	8r	.
8a-	me	8c- 8e-	me
8g-	_	8c- 8e-	_
8[g-	now,	8[B- 8[d-	now,
8g-]	_	8B-] 8d-]	_
8b-	whoa	8B- 8e-	whoa
8a-	_	8c- 8e-	_
8g-	_	8c- 8e-	_
=64	=64	=64	=64
4a-	whoa,	4c- 4e-	whoa,
4g-	_	4c- 4e-	_
4a-	gone	4c- 4e-	gone
4g-	and	4c- 4e-	and
=65	=65	=65	=65
8g-q	_	.	.
4a-	got	4c- 4f-	got
8g-	me	8c- 8e-	me
8[a-	now	8[c- 8[e-	now
8a-]	_	4c-] 4e-]	_
8g-	_	.	.
4e-	_	4r	.
=66	=66	=66	=66
8r	.	8r	.
8a-	I	8d- 8g-	I
4b-	can't	4d- 4g-	can't
4b-	fight	4d- 4g-	fight
4a-	him	4c- 4e-	him
=67	=67	=67	=67
4b-	a-	4d- 4g-	a-
8a-	-ny-	8c- 8e-	-ny-
8[g-	-how,	8[B- 8[d-	-how,
8g-]	_	8B-] 8d-]	_
8a-	I	8c- 8e-	I
4b-	_	4d- 4g-	_
=68	=68	=68	=68
4a-	think	4c 4e-	think
4a-	he's	4c 4e-	he's
4a-	gon-	4c 4e-	gon-
8g-	-na	8c 8e-	-na
8a-q	_	8cq 8e-q	_
8[b-	win	8[d- 8[f	win
=69	=69	=69	=69
8b-]	_	8d-] 8f]	_
8r	.	8r	.
4r	.	4r	.
2r	.	2r	.
=70	=70	=70	=70
8a-q	_	.	.
4b-	Hea-	4d- 4g-	Hea-
4a-	-ven's	4d- 4g-	-ven's
4b-	just	4d- 4g-	just
4a-	a	4c- 4e-	a
=71	=71	=71	=71
8a-q	_	.	.
4b-	sin	4d- 4g-	sin
8a-	a-	8c- 8e-	a-
8[g-	-way,	8[B- 8[d-	-way,
8g-]	_	8B-] 8d-]	_
8b-	whoa	8B- 8e-	whoa
8a-	_	8c- 8e-	_
8g-	_	8c- 8e-	_
=72	=72	=72	=72
4a-	whoa,	4c- 4e-	whoa,
4g-	_	4c- 4e-	_
4a-	just	4c- 4e-	just
4g-	a	4c- 4e-	a
=73	=73	=73	=73
8g-q	_	.	.
4a-	sin	4c- 4f-	sin
8g-	a-	8c- 8e-	a-
8[a-	-way,	8[c- 8[e-	-way
8a-]	_	4c-] 4e-]	_
8g-	_	.	.
4e-	_	4r	.
=74	=74	=74	=74
8b-	Hea-	8d- 8g-	Hea-
4b-	-ven	4d- 4g-	-ven
8[b-	help	8[d- 8[g-	help
8b-]	_	8d-] 8g-]	_
4.a-	me	4.c- 4.e-	me
=75	=75	=75	=75
8b-	when	8d- 8g-	when
4a-	I	4c- 4e-	I
8g-	say	8B- 8d-	say
4r	.	4r	.
8r	.	8r	.
8b-	I	8d- 8g-	I
=76	=76	=76	=76
4a-	think	4d- 4f	think
4g-	I'm	4d- 4e-	I'm
4b-	gi-	4d- 4g-	gi-
8dd-	-vin'	8d- 8f	-vin'
8a-q	_	8fq	_
8[b-	in!	8[d- 8[g-	in!
=77	=77	=77	=77
8b-]	_	8d-] 8g-]	_
8a-	_	8c- 8e-	_
2.g-	_	2.B- 2.d-	_
=78	=78	=78	=78
*G:	*	*G:	*
1r	.	1r	.
=79	=79	=79	=79
8aq	_	.	.
4b	Hea-	4d 4g	Hea-
4a	-ven's	4d 4g	-ven's
4b	just	4d 4g	just
4a	a	4c 4e	a
=80	=80	=80	=80
8aq	_	.	.
4b	sin	4d 4g	sin
8a	a-	8c 8e	a-
8[g	-way,	8[B 8[d	-way,
8g]	_	8B] 8d]	_
8b	whoa	8B 8e	whoa
8a	_	8c 8e	_
8g	_	8c 8e	_
=81	=81	=81	=81
4a	whoa,	4c 4e	whoa,
4g	_	4c 4e	_
4a	just	4c 4e	just
4g	a	4c 4e	a
=82	=82	=82	=82
8gq	_	.	.
4a	sin	4c 4f	sin
8g	a-	8c 8e	a-
8[a	-way,	8[c 8[e	-way
8a]	_	4c] 4e]	_
8g	_	.	.
4e	_	4r	.
=83	=83	=83	=83
8r	.	8r	.
8a	I	8d 8g	I
4b	can't	4d 4g	can't
4b	wait	4d 4g	wait
4a	a-	4c 4e	a-
=84	=84	=84	=84
4b	-no-	4d 4g	-no-
8a	-ther	8c 8e	-ther
8[g	day,	8[B 8[d	day,
8g]	_	8B] 8d]	_
8a	I	8c 8e	I
4b	_	4d 4g	_
=85	=85	=85	=85
4a	think	4c# 4e	think
4a	I'm	4c# 4e	I'm
4a	gi-	4c# 4e	gi-
8g	-vin'	8c# 8e	-vin'
8aq	_	8c#q 8eq	_
8[b	in	8[d 8[f#	in
=86	=86	=86	=86
8b]	_	8d] 8f#]	_
8r	.	8r	.
4r	.	4r	.
2r	.	2r	.
=87	=87	=87	=87
8aq	_	.	.
8b	How	8d 8g	How
4a	I'd	4d 4g	I'd
4.b	love	4.d 4.g	love
8a	to	8c 8e	to
8[b	hold	8[d 8[g	hold
=88	=88	=88	=88
4b]	_	4d] 4g]	_
8a	you	8c 8e	you
8[g	tight,	8[B 8[d	tight,
8g]	_	8B] 8d]	_
8b	whoa	8B 8e	whoa
8a	_	8c 8e	_
8g	_	8c 8e	_
=89	=89	=89	=89
4a	whoa,	4c 4e	whoa,
4g	_	4c 4e	_
4a	be	4c 4e	be
8g	with	8c 8e	with
8[a	you	8[c 8[f	you
=90	=90	=90	=90
4a]	_	4c] 4f]	_
8g	to-	8c 8e	to-
8[a	-night	8[c 8[e	-night
8a]	_	4c] 4e]	_
8g	_	.	.
4e	_	4r	.
r;	.	r;	.
r;	.	r;	.
*-	*-	*-	*-
!!!ENC: Nathaniel Condit-Schultz